icons/cloud-offline-16.svg

<svg width="16" height="16" viewBox="0 0 16 16" fill="none" xmlns="http://www.w3.org/2000/svg">
<path d="M7.25 2C4.32829 2 1.94623 4.4619 2.00542 7.32724C0.810786 7.88273 0 9.08761 0 10.5C0 12.4525 1.54755 14 3.5 14C3.91421 14 4.25 13.6642 4.25 13.25C4.25 12.8358 3.91421 12.5 3.5 12.5C2.37598 12.5 1.5 11.624 1.5 10.5C1.5 9.55056 2.12376 8.78393 2.98391 8.56406C3.35477 8.46926 3.59473 8.11039 3.54064 7.73144C3.227 5.53424 5.01474 3.5 7.25 3.5C8.90454 3.5 10.2844 4.5347 10.7914 5.99586C10.8962 6.29766 11.1806 6.5 11.5 6.5C13.1763 6.5 14.5 7.82373 14.5 9.5C14.5 10.9311 13.5481 12.1898 12.3043 12.526C11.9044 12.6341 11.6679 13.0458 11.776 13.4457C11.8841 13.8456 12.2958 14.0821 12.6957 13.974C14.6435 13.4475 16 11.5557 16 9.5C16 7.17026 14.2737 5.28123 12.0169 5.0287C11.1862 3.22888 9.37133 2 7.25 2Z" fill="#24292F"/>
<path d="M7.03033 11.4697C6.73744 11.1768 6.26256 11.1768 5.96967 11.4697C5.67678 11.7626 5.67678 12.2374 5.96967 12.5303L6.93934 13.5L5.96967 14.4697C5.67678 14.7626 5.67678 15.2374 5.96967 15.5303C6.26256 15.8232 6.73744 15.8232 7.03033 15.5303L8 14.5607L8.96967 15.5303C9.26256 15.8232 9.73744 15.8232 10.0303 15.5303C10.3232 15.2374 10.3232 14.7626 10.0303 14.4697L9.06066 13.5L10.0303 12.5303C10.3232 12.2374 10.3232 11.7626 10.0303 11.4697C9.73744 11.1768 9.26256 11.1768 8.96967 11.4697L8 12.4393L7.03033 11.4697Z" fill="#24292F"/>
</svg>

<svg xmlns="http://www.w3.org/2000/svg" width="16" height="16" viewBox="0 0 16 16"><path d="M7.25 2C4.328 2 1.946 4.462 2.005 7.327A3.474 3.474 0 000 10.5C0 12.453 1.548 14 3.5 14a.75.75 0 000-1.5c-1.124 0-2-.876-2-2 0-.95.624-1.716 1.484-1.936a.75.75 0 00.557-.833C3.227 5.534 5.015 3.5 7.25 3.5a3.72 3.72 0 013.541 2.496.75.75 0 00.709.504c1.676 0 3 1.324 3 3 0 1.431-.952 2.69-2.196 3.026a.75.75 0 10.392 1.448C14.643 13.447 16 11.556 16 9.5a4.472 4.472 0 00-3.983-4.471A5.222 5.222 0 007.25 2z"/><path d="M7.03 11.47a.75.75 0 00-1.06 1.06l.97.97-.97.97a.75.75 0 101.06 1.06l.97-.97.97.97a.75.75 0 101.06-1.06l-.97-.97.97-.97a.75.75 0 10-1.06-1.06l-.97.97-.97-.97z"/></svg>
